X: 4
T:Belle qui tiens va vie - Contra-tenor
M:C|
L:1/2
B:Thoinot Arbeau : Orchesographie, 1589
Z:Steve Mansfield February 2001
K:Gdor
D2 | DD | DF | F2 |
FF | EF | GF | F2 |
D2 | DD | DF | F2 |
FF | EF | GF | F2 |
F2 | FF | D_E | D2 |
F2 | CD | DD | =B,2 |
F2 | FF | D_E | D2 |
F2 | CD | DD | D2 |
<end>
<start>
